assets/clients/ve.svg

<svg width="46" height="29" viewBox="0 0 46 29" fill="none" xmlns="http://www.w3.org/2000/svg">
    <path d="M35.3432 6.66992C29.7639 6.66992 25.2656 11.5207 25.2656 17.4691C25.2656 23.4174 29.7988 28.2682 35.3432 28.2682C41.585 28.2682 44.0957 23.6299 44.0957 23.6299L43.3983 23.0988C42.0384 22.072 40.2251 21.9303 38.7605 22.7801C37.9934 23.2404 37.017 23.5945 35.7965 23.5945C30.7403 23.5945 30.3219 18.8853 30.3219 18.8853H44.0957C44.0957 18.8853 45.4557 19.027 45.4557 17.4691C45.4208 11.4853 40.8876 6.66992 35.3432 6.66992ZM30.287 15.3092C30.287 15.3092 30.6008 11.2728 35.2735 11.2728C39.9461 11.2728 40.6087 15.3092 40.6087 15.3092H30.287Z" fill="#CFCECE"/>
    <path d="M7.93326 3.0594C6.92202 0.0498047 2.73755 0.0498047 2.73755 0.0498047C2.73755 0.0498047 0.470969 0.0498047 0.819675 0.970387C1.16838 1.85556 2.70268 5.92737 4.65543 11.0968C4.65543 11.1322 4.6903 11.1676 4.6903 11.203C4.9344 11.8403 6.50357 14.7791 11.9085 14.7791C10.0255 9.25563 8.17736 3.80295 7.93326 3.0594Z" fill="#CFCECE"/>
    <path d="M12.3631 16.0882C12.3631 16.0882 7.09769 17.5399 8.52738 21.293L11.0729 28.0558H11.4565C16.8266 28.0558 18.326 25.0816 18.5701 24.4443C18.5701 24.4443 27.1134 1.85459 27.4621 0.96941C27.8108 0.0488281 25.5442 0.0488281 25.5442 0.0488281C25.5442 0.0488281 21.3597 0.0488281 20.3485 3.05842C20.1044 3.80197 18.2563 9.25465 16.3733 14.8136L14.1415 21.3638C13.3395 19.027 12.3631 16.0882 12.3631 16.0882Z" fill="#CFCECE"/>
</svg>

<svg width="46" height="29" fill="none" xmlns="http://www.w3.org/2000/svg"><path d="M35.343 6.67c-5.58 0-10.077 4.85-10.077 10.8 0 5.947 4.533 10.798 10.077 10.798 6.242 0 8.753-4.638 8.753-4.638l-.698-.531c-1.36-1.027-3.173-1.169-4.638-.319a5.658 5.658 0 0 1-2.963.814c-5.057 0-5.475-4.709-5.475-4.709h13.774s1.36.142 1.36-1.416c-.035-5.984-4.568-10.8-10.113-10.8Zm-5.056 8.64s.314-4.037 4.986-4.037c4.673 0 5.336 4.036 5.336 4.036H30.287ZM7.933 3.06C6.922.05 2.738.05 2.738.05S.47.05.82.97c.348.886 1.883 4.957 3.835 10.127 0 .035.035.07.035.106.244.637 1.814 3.576 7.218 3.576A2778.145 2778.145 0 0 1 7.934 3.06Z" fill="#CFCECE"/><path d="M12.363 16.088s-5.265 1.452-3.836 5.205l2.546 6.763h.383c5.37 0 6.87-2.974 7.114-3.612 0 0 8.543-22.59 8.892-23.475.349-.92-1.918-.92-1.918-.92s-4.184 0-5.195 3.01c-.245.743-2.093 6.196-3.976 11.755l-2.232 6.55a679.556 679.556 0 0 1-1.778-5.276Z" fill="#CFCECE"/></svg>
